X:0522
T:Cottilon.
M:2/4
L:1/16
Q:1/4=120
I: || ::
Z:Jack Campin * www.campin.me.uk * 2009
K:C
g4 (efg).a|g4 (efg).a|g2e2f2d2  |(cBc).d (cde).f|\
g4 (efg).a|g4 (efg).a|g2e2f2d2  | c4      c4   ||
G4  G2G2  |A4  A2A2  |f4 (edc).B|(cBc).d  c2c2  |\
G4  G2G2  |A4  A2A2  |a4  gfed  | c4      c4   |]

